X:116
T:The Old Derry March
N:Set (long) Dance   Allan's #116  pp30
N:Trad/Anon
N:Notes:
N:"Suitable For 'The Gates of Derry' "
N:CONVERTED FROM NOTEWORTHY COMPOSER  (WWW.NOTEWORTHYSOFTWARE.COM) BY
N:ABC2NWC (HTTP://MEMBERS.AOL.COM/ABACUSMUSIC/), WITH
Z: (INTO NWC) VINCE BRENNAN 2002   (WWW.SOSYOURMOM.COM)
I:abc2nwc
M:6/8
L:1/8
K:D
A|dfdB2d|AFAA2B|A2B d2e|f2a gfe|
dfd B2d|AFA A2B|A2g fge|d3d2:|
|:A|d2f a2f|b2g a2f|d2f a2f|g2e bge|
d2f agf|gab a2g|fdB Ade|fda gfe|
fdB B2d|AFA A2B|A2B d2e|f2a gfe|
dfd B2d|AFA A2B|A2g fge|d3d2:|
